!!!SOCIAL_FUNCTION:	potlatch songs
!!!PDT:	1939
!!!OTL: No_12_Song_of_Invitation_to_a_Potlatch.krn
!!!LANG: Non-Tone
!!!LING_GROUP: Wakashan
!!!REG: Pacific Northwest
**kern
*staff1
=1-
*clefF4
*k[f#c#]
*M2/4
4r
12G\L
12G\
24G\L
24B-\JJ
=2!|:
[4B\
8B\L]
16B\L
16B\JJ
=3
8B\L
16B\L
16B\JJ
8.B\L
16B\Jk
=4
8A\L
16G\L
16G\JJ
16G\LL
16F#\JJ
8r
=5||
*M5/8
8G\L
8G\
16G\L
16G\
16G\JJ
16r
16.B-\LL
32A\JJk
=6||
*M2/4
4.A\
8r
=7
8.B-\L
16A\Jk
12A\L
12F#\
12A\J
=8
16A\LK
8.F#\J
4F#\
=9||
*M3/4
4F#\
16E\LK
8.D\J
8D\
8r
=10||
*M2/4
8.F#\L
16E\Jk
16A\LK
[8.F#\J
=11
4.F#\]
16A\LL
32F#\JJk
32r
=12
8.F#\L
16F#\Jk
16E\LK
8D\J
16r
=13
8.F#\L
16F#\Jk
12E\L
12D\
12F#\J
=14
16F#\LK
8.F#\J
4r
=15
2r
=16
4A\
32A\LLK
16.F#\J
8E\J
=17
8.F#\L
16E\Jk
16E\LK
8D\J
16r
=18
8.F#\L
16E\Jk
16E\LL
16D\J
8F#\J
=19
16F#\LK
8F#\J
16r
16F#\LL
16F#\
16F#\
16B-\JJ
=20:|!
16F#\LK
8.F#\J
4r
==
*-
